Obsidian/actions/22s/wallet-open.svg

<svg height="22" viewBox="0 0 22 22" width="22" xmlns="http://www.w3.org/2000/svg"><path d="m4.6660156 1c-.9233 0-1.6660156.7805-1.6660156 1.75v10.5c0 .97.7427156 1.75 1.6660156 1.75h6.6679684c.923 0 1.666016-.78 1.666016-1.75v-10.5c0-.9695-.743016-1.75-1.666016-1.75zm2.3339844 1h2v8h-2zm0 9h2v2h-2z" fill="#bebebe" transform="translate(3 3)"/></svg>

<svg xmlns="http://www.w3.org/2000/svg" width="22" height="22" viewBox="0 0 22 22">
 <defs>
  <style id="current-color-scheme" type="text/css">
   .ColorScheme-Text { color:#bebebe; } .ColorScheme-Highlight { color:#4285f4; }
  </style>
 </defs>
 <path style="fill:currentColor" class="ColorScheme-Text" d="M 4.6660156 1 C 3.7427156 1 3 1.7805 3 2.75 L 3 13.25 C 3 14.22 3.7427156 15 4.6660156 15 L 11.333984 15 C 12.256984 15 13 14.22 13 13.25 L 13 2.75 C 13 1.7805 12.256984 1 11.333984 1 L 4.6660156 1 z M 7 2 L 9 2 L 9 10 L 7 10 L 7 2 z M 7 11 L 9 11 L 9 13 L 7 13 L 7 11 z" transform="translate(3 3)"/>
</svg>
